svg/NEPAnode-EnergyInfrastructure/CrudePipeline.svg

<?xml version="1.0" encoding="UTF-8" standalone="no"?>
<!-- Created with Inkscape (http://www.inkscape.org/) -->

<svg
   xmlns:dc="http://purl.org/dc/elements/1.1/"
   xmlns:cc="http://creativecommons.org/ns#"
   xmlns:rdf="http://www.w3.org/1999/02/22-rdf-syntax-ns#"
   xmlns:svg="http://www.w3.org/2000/svg"
   xmlns="http://www.w3.org/2000/svg"
   xmlns:xlink="http://www.w3.org/1999/xlink"
   xmlns:sodipodi="http://sodipodi.sourceforge.net/DTD/sodipodi-0.dtd"
   xmlns:inkscape="http://www.inkscape.org/namespaces/inkscape"
   version="1.1"
   width="250"
   height="250"
   viewBox="0 0 0.34722222 0.34722222"
   id="svg2"
   inkscape:version="0.48.4 r9939"
   sodipodi:docname="CrudePipeline.svg"
   inkscape:export-filename="/media/john/My Passport/Markers/Energy/CrudePipeline2.png"
   inkscape:export-xdpi="300.2186"
   inkscape:export-ydpi="300.2186">
  <sodipodi:namedview
     pagecolor="#ffffff"
     bordercolor="#666666"
     borderopacity="1"
     objecttolerance="10"
     gridtolerance="10"
     guidetolerance="10"
     inkscape:pageopacity="0"
     inkscape:pageshadow="2"
     inkscape:window-width="1040"
     inkscape:window-height="705"
     id="namedview20"
     showgrid="false"
     inkscape:zoom="0.944"
     inkscape:cx="125"
     inkscape:cy="125"
     inkscape:window-x="1628"
     inkscape:window-y="131"
     inkscape:window-maximized="0"
     inkscape:current-layer="svg2" />
  <title
     id="title4">SVG drawing</title>
  <desc
     id="desc6">This was produced by version 4.1 of GNU libplot, a free library for exporting 2-D vector graphics.</desc>
  <metadata
     id="metadata3395">
    <rdf:RDF>
      <cc:Work
         rdf:about="">
        <dc:format>image/svg+xml</dc:format>
        <dc:type
           rdf:resource="http://purl.org/dc/dcmitype/StillImage" />
        <dc:title>SVG drawing</dc:title>
      </cc:Work>
    </rdf:RDF>
  </metadata>
  <defs
     id="defs3393">
    <linearGradient
       id="linearGradient8138">
      <stop
         id="stop8140"
         style="stop-color:#ffffff;stop-opacity:0"
         offset="0" />
      <stop
         id="stop8142"
         style="stop-color:#000000;stop-opacity:0"
         offset="1" />
    </linearGradient>
    <radialGradient
       cx="0.17569096"
       cy="0.17470571"
       r="0.16916668"
       fx="0.17569096"
       fy="0.17470571"
       id="radialGradient8144"
       xlink:href="#linearGradient8138"
       gradientUnits="userSpaceOnUse" />
  </defs>
  <text
     x="-0.032071669"
     y="0.3455472"
     id="text7140"
     xml:space="preserve"
     style="font-size:0.0555556px;font-style:normal;font-variant:normal;font-weight:normal;font-stretch:normal;line-height:125%;letter-spacing:0px;word-spacing:0px;fill:#000000;fill-opacity:1;stroke:none;font-family:Energy Infrastructure;-inkscape-font-specification:Energy Infrastructure"><tspan
       x="-0.032071669"
       y="0.3455472"
       id="tspan7142"
       style="font-size:0.59036261px" /></text>
  <path
     d="M 329.28829,363.4657 A 105.41456,102.94666 0 1 1 118.45918,363.4657 105.41456,102.94666 0 1 1 329.28829,363.4657 z"
     transform="matrix(0.00161659,0,0,0.00168318,-0.18770819,-0.44043665)"
     id="path3037"
     style="opacity:0;fill:#000000;fill-opacity:1;fill-rule:nonzero;stroke:#000000;stroke-opacity:1" />
  <path
     d="M 296.14793,366.28613 A 58.877029,87.434151 0 1 1 178.39388,366.28613 58.877029,87.434151 0 1 1 296.14793,366.28613 z"
     transform="matrix(0.00161659,0,0,0.00168318,-0.18770819,-0.44043665)"
     id="path3807"
     style="opacity:0;fill:#000000;fill-opacity:1;fill-rule:nonzero;stroke:#000000;stroke-width:2;stroke-linejoin:round;stroke-miterlimit:4;stroke-opacity:1;stroke-dasharray:none" />
  <path
     d="M 333.51899,368.40149 A 88.491829,87.434151 0 1 1 156.53533,368.40149 88.491829,87.434151 0 1 1 333.51899,368.40149 z"
     transform="matrix(0.00193978,0,0,0.00196324,-0.29939172,-0.54859269)"
     id="path3851-1"
     style="fill:#000000;fill-opacity:0.99086758;stroke:#000000;stroke-width:2;stroke-linejoin:round;stroke-miterlimit:4;stroke-opacity:0.97716896;stroke-dasharray:none" />
  <g
     style="font-size:0.0555556px;font-style:normal;font-variant:normal;font-weight:normal;font-stretch:normal;line-height:125%;letter-spacing:0px;word-spacing:0px;fill:#ffffff;fill-opacity:1;stroke:url(#radialGradient8144);stroke-opacity:1;font-family:Energy Infrastructure;-inkscape-font-specification:Energy Infrastructure"
     id="text8092">
    <path
       d="M 0.32152431,0.15078905 C 0.32813507,0.15078924 0.33357951,0.15312258 0.33785765,0.15778905 0.34252394,0.1624559 0.34485727,0.16809478 0.34485765,0.17470572 0.34485727,0.18131699 0.34252394,0.18695588 0.33785765,0.19162239 0.33357951,0.19590031 0.32813507,0.1980392 0.32152431,0.19803905 0.31607952,0.1980392 0.31141286,0.19667809 0.30752431,0.19395572 0.30402398,0.19084476 0.30130176,0.18695588 0.29935764,0.18228905 L 0.25794098,0.18228905 C 0.25716291,0.19240032 0.25463514,0.20173364 0.25035764,0.21028906 0.24607959,0.21884474 0.24063515,0.22642806 0.23402431,0.23303906 0.22741294,0.23965027 0.21982961,0.24509471 0.21127431,0.24937239 0.20271852,0.25365026 0.19357964,0.25617804 0.18385764,0.25695573 L 0.18385764,0.2983724 C 0.1881352,0.29992799 0.19163519,0.30265021 0.19435764,0.30653906 0.19746852,0.31042798 0.19902408,0.3149002 0.1990243,0.31995573 0.19902408,0.32656686 0.19669075,0.33220574 0.1920243,0.3368724 0.18774631,0.34153907 0.18230187,0.3438724 0.17569097,0.3438724 0.16907966,0.3438724 0.16344078,0.34153907 0.1587743,0.3368724 0.15449634,0.33220574 0.15235745,0.32656686 0.15235763,0.31995573 0.15235745,0.3149002 0.15371856,0.31042798 0.15644097,0.30653906 0.15955189,0.30265021 0.16324633,0.29992799 0.1675243,0.2983724 L 0.1675243,0.25695573 C 0.15780189,0.25617804 0.14866301,0.25365026 0.14010763,0.24937239 0.13155192,0.24509471 0.12377415,0.23965027 0.1167743,0.23303906 0.11016305,0.22642806 0.10471861,0.21884474 0.10044096,0.21028906 0.09655195,0.20173364 0.09402417,0.19240032 0.09285763,0.18228905 L 0.05202429,0.18228905 C 0.05007977,0.18695588 0.04716311,0.19084476 0.04327429,0.19395572 0.03938534,0.19667809 0.03491312,0.1980392 0.02985763,0.19803905 0.02324646,0.1980392 0.01760758,0.19590031 0.01294096,0.19162239 0.00866314,0.18695588 0.00652426,0.18131699 0.00652429,0.17470572 0.00652426,0.16809478 0.00866314,0.1624559 0.01294096,0.15778905 0.01760758,0.15312258 0.02324646,0.15078924 0.02985763,0.15078905 0.03530201,0.15078924 0.03977423,0.1523448 0.04327429,0.15545572 0.04716311,0.15856702 0.05007977,0.16226146 0.05202429,0.16653905 L 0.09285763,0.16653905 C 0.09402417,0.15681702 0.09655195,0.14767814 0.10044096,0.13912238 0.10471861,0.13017815 0.11016305,0.12240038 0.1167743,0.11578905 0.12377415,0.10917817 0.13155192,0.10373373 0.14010763,0.09945571 0.14866301,0.09517819 0.15780189,0.09265041 0.1675243,0.09187238 L 0.1675243,0.05103904 C 0.16324633,0.0490949 0.15955189,0.04617823 0.15644097,0.04228904 0.15371856,0.03840046 0.15235745,0.03392824 0.15235763,0.02887238 0.15235745,0.02226159 0.15449634,0.01681715 0.1587743,0.01253904 0.16344078,0.00787271 0.16907966,0.00553938 0.17569097,0.00553904 0.18230187,0.00553938 0.18774631,0.00787271 0.1920243,0.01253904 0.19669075,0.01681715 0.19902408,0.02226159 0.1990243,0.02887238 0.19902408,0.03392824 0.19746852,0.03840046 0.19435764,0.04228904 0.19163519,0.04617823 0.1881352,0.0490949 0.18385764,0.05103904 L 0.18385764,0.09187238 C 0.19357964,0.0930393 0.20271852,0.09576152 0.21127431,0.10003905 0.21982961,0.10392818 0.22741294,0.10917817 0.23402431,0.11578905 0.24102404,0.12240038 0.24646848,0.13017815 0.25035764,0.13912238 0.25463514,0.14767814 0.25735736,0.15681702 0.25852431,0.16653905 L 0.29935764,0.16653905 C 0.30091287,0.16226146 0.30363509,0.15856702 0.30752431,0.15545572 0.31141286,0.1523448 0.31607952,0.15078924 0.32152431,0.15078905"
       style="font-size:0.58333337px;fill:#ffffff"
       id="path2998" />
  </g>
  <g
     transform="scale(1.0188422,0.98150626)"
     style="font-size:0.01877125px;font-style:normal;font-variant:normal;font-weight:normal;font-stretch:normal;line-height:125%;letter-spacing:0px;word-spacing:0px;fill:#000000;fill-opacity:1;stroke:none;font-family:Energy Infrastructure;-inkscape-font-specification:Energy Infrastructure"
     id="text8134"
     inkscape:export-xdpi="300.2186"
     inkscape:export-ydpi="300.2186">
    <path
       d="M 0.21071227,0.18332163 0.21071227,0.21899637 C 0.21307733,0.22031037 0.21425992,0.22162435 0.21426003,0.22293833 0.21425992,0.22425232 0.21314303,0.22550061 0.21090937,0.22668319 0.20880688,0.22786578 0.20591611,0.22891697 0.20223705,0.22983676 0.1985578,0.23062515 0.19422164,0.23128214 0.18922859,0.23180774 0.18423536,0.23233333 0.17891372,0.23259613 0.17326365,0.23259613 0.16761344,0.23259613 0.1622918,0.23233333 0.15729871,0.23180774 0.15230551,0.23128214 0.14796936,0.23062515 0.14429024,0.22983676 0.14061104,0.22891697 0.13765458,0.22786578 0.13542083,0.22668319 0.13331842,0.22550061 0.13226724,0.22425232 0.13226726,0.22293833 0.13226724,0.22175575 0.13318702,0.22057316 0.13502664,0.21939056 L 0.13502664,0.18332163 C 0.13988835,0.18529266 0.14560419,0.18680374 0.15217416,0.18785488 0.15887544,0.18890612 0.16577386,0.18943171 0.17286945,0.18943167 0.1799649,0.18943171 0.18679763,0.18897182 0.19336764,0.18805198 0.20006888,0.18700084 0.20585042,0.18542405 0.21071227,0.18332163 M 0.13502664,0.14055136 C 0.13988835,0.14252243 0.14560419,0.14403352 0.15217416,0.14508462 0.15887544,0.14613589 0.16577386,0.14666149 0.17286945,0.1466614 0.1799649,0.14666149 0.18679763,0.14620159 0.19336764,0.14528171 0.20006888,0.14423061 0.20585042,0.14265383 0.21071227,0.14055136 L 0.21071227,0.16814508 C 0.21307733,0.16945913 0.21425992,0.17077312 0.21426003,0.17208704 0.21425992,0.17340109 0.21314303,0.17464937 0.21090937,0.1758319 0.20880688,0.17701455 0.20591611,0.17806574 0.20223705,0.17898547 0.1985578,0.17977392 0.19422164,0.18043091 0.18922859,0.18095645 0.18423536,0.1814821 0.17891372,0.1817449 0.17326365,0.18174484 0.16761344,0.1817449 0.1622918,0.1814821 0.15729871,0.18095645 0.15230551,0.18043091 0.14796936,0.17977392 0.14429024,0.17898547 0.14061104,0.17806574 0.13765458,0.17701455 0.13542083,0.1758319 0.13331842,0.17464937 0.13226724,0.17340109 0.13226726,0.17208704 0.13226724,0.17077312 0.13318702,0.16959053 0.13502664,0.16853928 L 0.13502664,0.14055136 M 0.17326365,0.11827929 C 0.17891372,0.1182794 0.18423536,0.1185422 0.18922859,0.11906768 0.19422164,0.11959339 0.1985578,0.12038178 0.20223705,0.12143286 0.20591611,0.12235276 0.20880688,0.12346964 0.21090937,0.12478352 0.21314303,0.12596622 0.21425992,0.1272802 0.21426003,0.12872548 0.21425992,0.13017097 0.21314303,0.13155065 0.21090937,0.13286454 0.20880688,0.13404723 0.20591611,0.13516411 0.20223705,0.13621521 0.1985578,0.13713509 0.19422164,0.13785778 0.18922859,0.13838328 0.18423536,0.13890897 0.17891372,0.13917177 0.17326365,0.13917168 0.16761344,0.13917177 0.1622918,0.13890897 0.15729871,0.13838328 0.15230551,0.13785778 0.14796936,0.13713509 0.14429024,0.13621521 0.14061104,0.13516411 0.13765458,0.13404723 0.13542083,0.13286454 0.13331842,0.13155065 0.13226724,0.13017097 0.13226726,0.12872548 0.13226724,0.1272802 0.13331842,0.12596622 0.13542083,0.12478352 0.13765458,0.12346964 0.14061104,0.12235276 0.14429024,0.12143286 0.14796936,0.12038178 0.15230551,0.11959339 0.15729871,0.11906768 0.1622918,0.1185422 0.16761344,0.1182794 0.17326365,0.11827929"
       style="font-size:0.197098px"
       id="path3001" />
  </g>
</svg>

<svg xmlns="http://www.w3.org/2000/svg" width="250" height="250" viewBox="0 0 0.34722222 0.34722222"><defs><radialGradient cx=".176" cy=".175" r=".169" id="0" gradientUnits="userSpaceOnUse"><stop stop-color="#fff" stop-opacity="0"/><stop offset="1" stop-opacity="0"/></radialGradient></defs><text x="-.032" y=".346" font-family="Energy Infrastructure" word-spacing="0" line-height="125%" letter-spacing="0" font-size=".056"><tspan x="-.032" y=".346" font-size=".59"/></text><path d="M333.51899 368.40149A88.49183 87.43415 0 1 1 156.53533 368.40149 88.49183 87.43415 0 1 1 333.51899 368.40149z" transform="matrix(.00194 0 0 .00196-.299-.549)" stroke-opacity=".977" stroke="#000" stroke-linejoin="round" fill-opacity=".991" stroke-width="2"/><g fill="#fff" stroke="url(#0)"><path d="m.322.151c.007 0 .012.002.016.007.005.005.007.001.007.017 0 .007-.002.012-.007.017-.004.004-.001.006-.016.006-.005 0-.001-.0001-.014-.004-.004-.003-.006-.007-.008-.012h-.041c-.0001.001-.003.019-.008.028-.004.009-.001.016-.016.023-.007.007-.014.012-.023.016-.009.004-.018.007-.027.008v.041c.004.002.008.004.011.008.003.004.005.008.005.013 0 .007-.002.012-.007.017-.004.005-.001.007-.016.007-.007 0-.012-.002-.017-.007-.004-.005-.006-.001-.006-.017 0-.005.0001-.001.004-.013.003-.004.007-.007.011-.008v-.041c-.001-.0001-.019-.003-.027-.008-.009-.004-.016-.001-.023-.016-.007-.007-.012-.014-.016-.023-.004-.009-.006-.018-.008-.028h-.041c-.002.005-.005.009-.009.012-.004.003-.008.004-.013.004-.007 0-.012-.002-.017-.006-.004-.005-.006-.001-.006-.017 0-.007.002-.012.006-.017.005-.005.001-.007.017-.007.005 0 .001.002.013.005.004.003.007.007.009.011h.041c.0001-.001.004-.019.008-.027.004-.009.001-.017.016-.023.007-.007.015-.012.023-.016.009-.004.018-.007.027-.008v-.041c-.004-.002-.008-.005-.011-.009-.003-.004-.004-.008-.004-.013 0-.007.002-.012.006-.016.005-.005.001-.007.017-.007.007 0 .012.002.016.007.005.004.007.001.007.016 0 .005-.002.001-.005.013-.003.004-.006.007-.011.009v.041c.001.0001.019.004.027.008.009.004.016.009.023.016.007.007.012.014.016.023.004.009.007.018.008.027h.041c.002-.004.004-.008.008-.011.004-.003.009-.005.014-.005" fill="#fff"/></g><g fill="#000" stroke="none"><path d="m.211.183v.036c.002.0001.004.003.004.004 0 .0001-.0001.003-.003.004-.002.0001-.005.002-.009.003-.004.0001-.008.0001-.013.002-.005.0001-.001.0001-.016.0001-.006 0-.011 0-.016-.0001-.005-.0001-.009-.0001-.013-.002-.004-.0001-.007-.002-.009-.003-.002-.0001-.003-.002-.003-.004 0-.0001.0001-.002.003-.004v-.036c.005.002.011.003.017.005.007.0001.014.002.021.002.007 0 .014 0 .02-.0001.007-.0001.012-.003.017-.005m-.076-.043c.005.002.011.003.017.005.007.0001.014.002.021.002.007 0 .014 0 .02-.0001.007-.0001.012-.003.017-.005v.028c.002.0001.004.003.004.004 0 .0001-.0001.003-.003.004-.002.0001-.005.002-.009.003-.004.0001-.008.0001-.013.002-.005.0001-.001.0001-.016.0001-.006 0-.011 0-.016-.0001-.005-.0001-.009-.0001-.013-.002-.004-.0001-.007-.002-.009-.003-.002-.0001-.003-.002-.003-.004 0-.0001.0001-.002.003-.004v-.028m.038-.022c.006 0 .011 0 .016.0001.005.0001.009.0001.013.002.004.0001.007.002.009.003.002.0001.003.002.003.004 0 .0001-.0001.003-.003.004-.002.0001-.005.002-.009.003-.004.0001-.008.002-.013.002-.005.0001-.001.0001-.016.0001-.006 0-.011 0-.016-.0001-.005-.0001-.009-.0001-.013-.002-.004-.0001-.007-.002-.009-.003-.002-.0001-.003-.003-.003-.004 0-.0001.0001-.003.003-.004.002-.0001.005-.002.009-.003.004-.0001.008-.002.013-.002.005-.0001.001-.0001.016-.0001" transform="scale(1.01884.98151)"/></g></svg>
